!!!OTL: "Die Braut im Kloster" DER JUENGLING KAM AUS DEM HEILGEN KRIEG
!!!ARE: Europa, Mitteleuropa, Deutschland
!!!SCT: Z1379
!!!YEM: Copyright 1995, estate of Helmut Schaffrath.
**kern
*ICvox
*Ivox
*M6/8
*k[b-e-]
*g:
{8a
=1
8a
8g
8a
8a
8g
8a
=2
16b-
16cc
8dd
16cc
16b-
4a}
{16a
16g
=3
8.a
16b-
16cc
16a
8.b-
16a
16g
16b-
=4
8a
8g
8f#
4g}
{8b-
=5
8.a
16g
16a
16g
8.fn
16g
8a
=6
8g
8fn
8e
4fn}
{16a
16g
=7
8.a
16b-
16cc
16a
8.b-
16a
16g
16b-
=8
8a
8g
8f#
4g}
==
!!!AGN: Erzaehlung, Romanze
!!!ONB: ESAC (Essen Associative Code) Database: ZUCCAL
!!!AMT: compound duple
!!!AIN: vox
!!!EED: Helmut Schaffrath
!!!EEV: 1.0
*-
